!!!COM: Gabriel Faure/
!!!CNT: Francais
!!!TXO: Francais
!!!OTL: Barcarolle
!!!LYR: Marc Monnier
!!!OPS: Op. 7
!!!ONM: No. 3
!!!ENC: Jacob Pegg
!!!YOR: Album of Twenty Songs (Vingt Me/lodies,) Volume II
!!!YOR: Edward B. Marks Music Corporation, RCA Building, Radio
!!!YOR: City, New York 20, N.Y.
!!!ODT: 1873/
!!NB: Vocal melody and text only encoded.
!!NB: First instance of melodic material only encoded.
**kern	**silbe
*clef G2	*
*k[b-e-]	*
*M6/8	*
*MM40	*
!! Andante, dotted quarter = 60
!!created: 2/29/04 11:40 PM
!!proofed and posted: 3/1/04 12:17 AM
!!edit time: 21 min.
=1	=1
4r	.
2r	.
=2	=2
2r	.
4r	.
=3	=3
{[8dd	{Gon-
24dd]	|
(24cc	-do-
24b-)	|
8a	-lier
(16g	du
16a)	|
8f	Ri-
8g	-al-
=4	=4
2.g}	-to}
=5	=5
{[8f	{Mon
24f]	|
(24g	cha^-
24a-)	|
8b-	-teau
(16cc	c'est
16dd)	|
64ffq	la
8ee-	|
8dd	la-
=6	=6
[4.dd	-gu-
4dd]	|
8dd}	-ne,}
!!mm. 7-10 rep. mm. 3-6
=11	=11
{[8dd	{gon-
24dd]	|
(24ee-	-do-
24ff)	|
[8gg	-lier
16gg]	|
16ff	du
8ee-	grand
8ff	ca-
=12	=12
2.dd}	-nal.}
=13	=13
!! printing is illegible here
!! the following word -'pourfanal'- is a best guess
{[8dd	{pour-
16dd]	|
16ee-	-fa-
8ff	-nal
(16ee-	j'ai
16dd)	|
8cc	la
8b-	croi-
=14	=14
[4.cc	-se/-
4cc]	|
8cc}	-e}
=15	=15
{8cc	{Ou
8dd	s'al-
(8ee-	-lu-
16dd-)	|
16cc	-ment
!! 'teus' is best guess also
8b-	teus
8a-	les
=16	=16
2.b-}	soirs,}
=17	=17
{[8bn	{tes
16bn]	|
16cc	yeux
[8dd	noirs
8dd]	|
(16cc	mon
16b-)	|
16a	e/-
16g	-pon-
=18	=18
(4.bn	-se/-
4.a)	|
=19	=19
2.g}	-e.}
*-	*-
